; HEADER_BLOCK_START
; generated by OrcaSlicer 1.8.1 on 2024-05-26 at 18:29:01
; total layer number: 125
; HEADER_BLOCK_END

; THUMBNAIL_BLOCK_START

;
; THUMBNAIL_BLOCK_END

; external perimeters extrusion width = 0.40mm
; perimeters extrusion width = 0.45mm
; infill extrusion width = 0.45mm
; solid infill extrusion width = 0.45mm
; top infill extrusion width = 0.38mm
; support material extrusion width = 0.38mm
; first layer extrusion width = 0.42mm

; EXECUTABLE_BLOCK_START
M73 P0 R72
M201 X500 Y500 Z100 E5000
M203 X500 Y500 Z10 E60
M204 P500 R1000 T500
M205 X8.00 Y8.00 Z0.40 E5.00 ; sets the jerk limits, mm/sec
;TYPE:Custom
M413 S0 ; disable Power Loss Recovery
G90 ; use absolute coordinates
M83 ; extruder relative mode
M104 S120 ; set temporary nozzle temp to prevent oozing during homing and auto bed leveling
M140 S65 ; set final bed temp
G4 S10 ; allow partial nozzle warmup
G28 ; home all axis
;G29 ; run abl mesh
M420 S1 ; load mesh
G1 Z50 F240
G1 X2 Y10 F3000
M104 S210 ; set final nozzle temp
M190 S65 ; wait for bed temp to stabilize
M109 S210 ; wait for nozzle temp to stabilize
G1 Z0.28 F240
G92 E0
G1 Y140 E10 F1500 ; prime the nozzle
G1 X2.3 F5000
G92 E0
G1 Y10 E10 F1200 ; prime the nozzle
G92 E0
G90
G21
M83 ; use relative distances for extrusion
; filament start gcode
M106 S0
;LAYER_CHANGE
;Z:0.2
;HEIGHT:0.2
;BEFORE_LAYER_CHANGE
G92 E0
;0.2


G1 E-2.5 F1500
;AFTER_LAYER_CHANGE
;0.2
;_SET_FAN_SPEED_CHANGING_LAYER
M204 S20
G1 Z.4 F9000
G1 X95.214 Y97.515
G1 Z.4
G1 Z.2
G1 E2.5 F1500
;TYPE:Skirt
;WIDTH:0.42
G1 F3000
G1 X95.678 Y97.158 E.018
G1 X96.207 Y96.881 E.01833
G1 X96.791 Y96.699 E.0188
G1 X97.465 Y96.623 E.02084
G1 X127.587 Y96.625 E.92557
G1 X128.209 Y96.699 E.01923
M73 P1 R72
G1 X128.826 Y96.895 E.01989
G1 X129.797 Y97.526 E.03559
G1 X130.227 Y98.01 E.01989
G1 X130.576 Y98.605 E.0212
G1 X130.785 Y99.217 E.01989
G1 X130.87 Y99.793 E.01787
G1 X130.875 Y125.124 E.77838
G1 X130.782 Y125.795 E.02079
G1 X130.558 Y126.433 E.02079
G1 X130.236 Y126.979 E.01949
G1 X129.808 Y127.464 E.01985
G1 X129.316 Y127.847 E.01917
G1 X128.793 Y128.119 E.01811
G1 X128.167 Y128.31 E.02011
G1 X127.535 Y128.377 E.01954
G1 X97.483 Y128.377 E.92341
G1 X96.792 Y128.302 E.02136
M73 P1 R71
G1 X96.16 Y128.099 E.02041
G1 X95.544 Y127.753 E.02169
G1 X95.015 Y127.286 E.0217
G1 X94.669 Y126.84 E.01735
G1 X94.381 Y126.294 E.01897
G1 X94.198 Y125.704 E.01899
G1 X94.126 Y125.119 E.0181
G1 X94.123 Y99.983 E.77236
G1 X94.19 Y99.333 E.02007
G1 X94.401 Y98.66 E.02169
G1 X94.747 Y98.044 E.02169
G1 X95.187 Y97.545 E.02046
; printing object shoulder_joint.STL id:0 copy 0
;WIPE_START
G1 X95.678 Y97.158 E-1.56303
G1 X96.01 Y96.984 E-.93697
;WIPE_END
G1 Z.6 F9000
G1 X125.023 Y104.71 Z.6
G1 Z.2
G1 E2.5 F1500
;TYPE:Inner wall
;WIDTH:0.419999
G1 F1800
G1 X125.146 Y104.739 E.00388
G1 X125.675 Y104.756 E.01626
G1 X126.199 Y104.672 E.01632
G1 X126.714 Y104.48 E.01689
G1 X127.183 Y104.189 E.01695
G1 X127.572 Y103.825 E.01638
G1 X127.892 Y103.379 E.01686
G1 X128.113 Y102.893 E.01641
;WIDTH:0.465538
G1 X128.167 Y102.764 E.00482
;WIDTH:0.511076
G1 X128.22 Y102.635 E.00533
;WIDTH:0.556614
G1 X128.274 Y102.506 E.00585
;WIDTH:0.602152
G1 X128.327 Y102.377 E.00637
G1 X128.353 Y102.468 E.00434
;WIDTH:0.557789
G1 X128.379 Y102.56 E.00399
;WIDTH:0.513425
G1 X128.406 Y102.651 E.00365
;WIDTH:0.469061
G1 X128.432 Y102.743 E.00331
;WIDTH:0.424697
G1 X128.434 Y102.957 E.00667
;WIDTH:0.419999
G1 X128.435 Y121.692 E.57566
;WIDTH:0.436626
G1 X128.427 Y122.257 E.01815
;WIDTH:0.482233
G1 X128.404 Y122.349 E.00337
;WIDTH:0.52784
G1 X128.381 Y122.44 E.00371
;WIDTH:0.573447
G1 X128.358 Y122.531 E.00406
;WIDTH:0.619054
G1 X128.336 Y122.622 E.00441
G1 X128.295 Y122.537 E.00441
;WIDTH:0.573447
G1 X128.255 Y122.452 E.00406
;WIDTH:0.52784
G1 X128.215 Y122.367 E.00371
;WIDTH:0.482233
G1 X128.175 Y122.282 E.00337
;WIDTH:0.436626
G1 X127.979 Y121.783 E.01722
;WIDTH:0.419999
G1 X127.689 Y121.317 E.01684
G1 X127.325 Y120.928 E.01638
G1 X126.879 Y120.608 E.01687
G1 X126.393 Y120.387 E.01641
G1 X125.858 Y120.262 E.01687
G1 X125.306 Y120.246 E.01698
G1 X124.779 Y120.334 E.0164
G1 X124.267 Y120.53 E.01686
G1 X123.773 Y120.842 E.01795
G1 X123.401 Y121.202 E.0159
G1 X123.108 Y121.621 E.0157
G1 X122.887 Y122.107 E.0164
G1 X122.764 Y122.622 E.01627
G1 X122.744 Y123.172 E.01692
G1 X122.833 Y123.717 E.01696
G1 X123.021 Y124.217 E.01643
G1 X123.311 Y124.683 E.01684
G1 X123.675 Y125.072 E.01639
G1 X124.121 Y125.392 E.01687
G1 X124.607 Y125.613 E.01639
;WIDTH:0.460412
G1 X124.706 Y125.657 E.00369
;WIDTH:0.500825
G1 X124.805 Y125.702 E.00405
;WIDTH:0.541237
G1 X124.904 Y125.746 E.00441
;WIDTH:0.58165
G1 X125.003 Y125.79 E.00476
;WIDTH:0.622062
G1 X125.102 Y125.835 E.00512
G1 X125.014 Y125.857 E.00425
;WIDTH:0.577709
G1 X124.927 Y125.879 E.00393
;WIDTH:0.533355
G1 X124.84 Y125.901 E.0036
;WIDTH:0.489001
G1 X124.752 Y125.923 E.00328
;WIDTH:0.444647
G1 X124.543 Y125.936 E.00688
;WIDTH:0.419999
G1 X100.807 Y125.936 E.72933
;WIDTH:0.424721
G1 X100.243 Y125.933 E.01754
;WIDTH:0.469487
G1 X100.152 Y125.911 E.00326
;WIDTH:0.514253
G1 X100.061 Y125.889 E.00361
;WIDTH:0.559019
G1 X99.969 Y125.866 E.00395
;WIDTH:0.603785
G1 X99.878 Y125.844 E.00429
G1 X99.963 Y125.8 E.00436
;WIDTH:0.559019
G1 X100.048 Y125.756 E.00401
;WIDTH:0.514253
G1 X100.132 Y125.713 E.00366
;WIDTH:0.469487
G1 X100.217 Y125.669 E.00331
;WIDTH:0.424721
G1 X100.716 Y125.479 E.01661
;WIDTH:0.419999
G1 X101.182 Y125.19 E.01686
G1 X101.572 Y124.825 E.0164
G1 X101.883 Y124.396 E.01628
G1 X102.111 Y123.897 E.01687
G1 X102.238 Y123.359 E.01698
G1 X102.256 Y122.825 E.0164
G1 X102.172 Y122.301 E.01632
G1 X101.972 Y121.77 E.01744
G1 X101.654 Y121.268 E.01826
G1 X101.296 Y120.9 E.01579
G1 X100.879 Y120.608 E.01562
G1 X100.392 Y120.386 E.01645
G1 X99.858 Y120.262 E.01684
G1 X99.306 Y120.246 E.01698
G1 X98.779 Y120.334 E.0164
G1 X98.283 Y120.521 E.01632
G1 X97.817 Y120.811 E.01684
G1 X97.428 Y121.175 E.01638
G1 X97.108 Y121.621 E.01687
G1 X96.887 Y122.107 E.0164
;WIDTH:0.469908
G1 X96.831 Y122.235 E.00488
;WIDTH:0.519817
G1 X96.776 Y122.364 E.00545
;WIDTH:0.569726
G1 X96.72 Y122.493 E.00602
;WIDTH:0.619634
G1 X96.664 Y122.622 E.00659
G1 X96.641 Y122.53 E.00442
;WIDTH:0.573919
G1 X96.619 Y122.439 E.00407
;WIDTH:0.528204
G1 X96.596 Y122.348 E.00372
;WIDTH:0.482489
G1 X96.573 Y122.257 E.00337
;WIDTH:0.436774
G1 X96.564 Y122.043 E.00689
;WIDTH:0.419999
G1 X96.564 Y103.302 E.57584
;WIDTH:0.434452
G1 X96.571 Y102.723 E.01848
;WIDTH:0.477346
G1 X96.593 Y102.636 E.00319
;WIDTH:0.52024
G1 X96.614 Y102.548 E.0035
;WIDTH:0.563134
G1 X96.636 Y102.461 E.00381
;WIDTH:0.606028
G1 X96.657 Y102.373 E.00413
G1 X96.698 Y102.455 E.00418
;WIDTH:0.563134
G1 X96.739 Y102.536 E.00386
;WIDTH:0.52024
G1 X96.78 Y102.618 E.00354
;WIDTH:0.477346
G1 X96.821 Y102.699 E.00323
;WIDTH:0.434452
G1 X97.019 Y103.213 E.01756
;WIDTH:0.419999
G1 X97.311 Y103.683 E.01699
G1 X97.675 Y104.072 E.01639
G1 X98.121 Y104.392 E.01687
G1 X98.607 Y104.613 E.01641
G1 X99.142 Y104.738 E.01687
G1 X99.675 Y104.756 E.01639
G1 X100.293 Y104.648 E.0193
G1 X100.805 Y104.437 E.017
G1 X101.225 Y104.16 E.01547
G1 X101.599 Y103.798 E.01599
G1 X101.892 Y103.379 E.0157
G1 X102.119 Y102.875 E.017
G1 X102.239 Y102.355 E.0164
G1 X102.256 Y101.825 E.01627
G1 X102.172 Y101.301 E.01632
G1 X101.972 Y100.77 E.01744
G1 X101.687 Y100.314 E.01652
G1 X101.325 Y99.928 E.01627
G1 X100.879 Y99.608 E.01686
G1 X100.392 Y99.387 E.01645
;WIDTH:0.469703
G1 X100.263 Y99.331 E.00487
;WIDTH:0.519406
G1 X100.135 Y99.276 E.00544
;WIDTH:0.569109
G1 X100.006 Y99.22 E.00601
;WIDTH:0.618812
G1 X99.878 Y99.165 E.00657
G1 X99.968 Y99.142 E.0044
;WIDTH:0.573395
G1 X100.059 Y99.119 E.00405
;WIDTH:0.527977
G1 X100.15 Y99.096 E.0037
;WIDTH:0.48256
G1 X100.241 Y99.074 E.00336
;WIDTH:0.437142
G1 X100.456 Y99.065 E.0069
;WIDTH:0.419999
G1 X124.195 Y99.072 E.72943
;WIDTH:0.429534
G1 X124.753 Y99.077 E.01759
;WIDTH:0.474359
G1 X124.848 Y99.099 E.00341
;WIDTH:0.519183
G1 X124.942 Y99.122 E.00377
;WIDTH:0.564008
G1 X125.037 Y99.144 E.00412
;WIDTH:0.608832
G1 X125.131 Y99.167 E.00448
G1 X125.043 Y99.207 E.00448
;WIDTH:0.564008
G1 X124.955 Y99.248 E.00412
;WIDTH:0.519183
G1 X124.867 Y99.289 E.00377
;WIDTH:0.474359
G1 X124.778 Y99.329 E.00341
;WIDTH:0.429534
G1 X124.284 Y99.521 E.0167
;WIDTH:0.419999
G1 X123.818 Y99.81 E.01686
G1 X123.428 Y100.175 E.0164
G1 X123.108 Y100.621 E.01687
G1 X122.887 Y101.107 E.0164
G1 X122.764 Y101.622 E.01627
G1 X122.744 Y102.171 E.01687
G1 X122.828 Y102.698 E.0164
G1 X123.028 Y103.23 E.01746
G1 X123.346 Y103.732 E.01827
G1 X123.705 Y104.101 E.01581
G1 X124.121 Y104.392 E.01562
G1 X124.625 Y104.619 E.01698
G1 X124.984 Y104.701 E.01129
;WIPE_START
G1 X125.146 Y104.739 E-.41549
G1 X125.675 Y104.756 E-1.32321
G1 X125.975 Y104.708 E-.76131
;WIPE_END
G1 Z.6 F9000
G1 X127.916 Y99.178 Z.6
G1 Z.2
G1 E2.5 F1500
G1 F1800
G1 X128.147 Y99.33 E.00851
G1 X128.347 Y99.612 E.01061
G1 X128.434 Y100.015 E.01267
G1 X128.434 Y100.692 E.02081
;WIDTH:0.436545
G1 X128.426 Y101.257 E.01814
;WIDTH:0.481915
G1 X128.403 Y101.349 E.00336
;WIDTH:0.527285
G1 X128.38 Y101.44 E.00371
;WIDTH:0.572655
G1 X128.358 Y101.531 E.00406
;WIDTH:0.618024
G1 X128.335 Y101.622 E.0044
G1 X128.295 Y101.537 E.0044
;WIDTH:0.572655
G1 X128.255 Y101.452 E.00406
;WIDTH:0.527285
G1 X128.215 Y101.367 E.00371
;WIDTH:0.481915
G1 X128.175 Y101.282 E.00336
;WIDTH:0.436545
G1 X127.979 Y100.783 E.01721
;WIDTH:0.419999
G1 X127.689 Y100.317 E.01684
G1 X127.325 Y99.928 E.01638
G1 X126.879 Y99.608 E.01687
G1 X126.393 Y99.387 E.01641
;WIDTH:0.467861
G1 X126.264 Y99.332 E.00485
;WIDTH:0.515723
G1 X126.135 Y99.278 E.0054
;WIDTH:0.563585
G1 X126.006 Y99.223 E.00594
;WIDTH:0.611446
G1 X125.877 Y99.168 E.00649
G1 X125.968 Y99.146 E.00434
;WIDTH:0.5676
G1 X126.059 Y99.124 E.00401
;WIDTH:0.523753
G1 X126.151 Y99.103 E.00367
;WIDTH:0.479906
G1 X126.242 Y99.081 E.00334
;WIDTH:0.436059
G1 X126.456 Y99.073 E.00685
;WIDTH:0.419999
G1 X127.514 Y99.073 E.03251
G1 X127.869 Y99.147 E.01116
G1 X127.882 Y99.156 E.00049
;WIPE_START
G1 X128.147 Y99.33 E-.79207
G1 X128.347 Y99.612 E-.86337
G1 X128.418 Y99.942 E-.84456
;WIPE_END
G1 Z.6 F9000
G1 X125.114 Y104.346 Z.6
G1 Z.2
G1 E2.5 F1500
G1 F1800
G1 X124.768 Y104.27 E.01088
G1 X124.297 Y104.056 E.01589
G1 X123.938 Y103.803 E.0135
G1 X123.625 Y103.475 E.01392
G1 X123.376 Y103.085 E.01421
G1 X123.198 Y102.626 E.01515
G1 X123.121 Y102.172 E.01414
G1 X123.134 Y101.697 E.0146
G1 X123.235 Y101.251 E.01406
G1 X123.421 Y100.83 E.01413
G1 X123.694 Y100.441 E.0146
G1 X124.027 Y100.124 E.01413
G1 X124.428 Y99.869 E.0146
G1 X124.855 Y99.704 E.01405
G1 X125.307 Y99.623 E.01414
G1 X125.785 Y99.632 E.01467
G1 X126.249 Y99.735 E.0146
G1 X126.67 Y99.921 E.01414
G1 X127.084 Y100.22 E.01568
G1 X127.376 Y100.527 E.01302
G1 X127.63 Y100.927 E.01458
G1 X127.797 Y101.357 E.01418
G1 X127.879 Y101.825 E.0146
G1 X127.868 Y102.285 E.01413
G1 X127.765 Y102.749 E.0146
G1 X127.579 Y103.17 E.01414
G1 X127.306 Y103.559 E.0146
G1 X126.973 Y103.876 E.01412
G1 X126.571 Y104.131 E.01464
G1 X126.127 Y104.301 E.01462
G1 X125.675 Y104.379 E.0141
G1 X125.217 Y104.369 E.01405
G1 X125.153 Y104.354 E.00202
G1 X125.2 Y103.98 F9000
;TYPE:Outer wall
G1 F1800
G1 X124.911 Y103.921 E.00905
G1 X124.506 Y103.743 E.01358
G1 X124.205 Y103.536 E.01124
G1 X123.938 Y103.264 E.0117
G1 X123.725 Y102.941 E.0119
G1 X123.568 Y102.554 E.01283
G1 X123.498 Y102.174 E.01187
G1 X123.504 Y101.772 E.01234
G1 X123.584 Y101.395 E.01184
G1 X123.735 Y101.04 E.01187
G1 X123.961 Y100.708 E.01234
G1 X124.237 Y100.437 E.01187
G1 X124.573 Y100.217 E.01234
G1 X124.93 Y100.073 E.01184
G1 X125.309 Y100 E.01187
G1 X125.711 Y100.002 E.01236
G1 X126.104 Y100.084 E.01234
G1 X126.46 Y100.235 E.01188
G1 X126.91 Y100.579 E.01741
G1 X127.062 Y100.736 E.00672
G1 X127.282 Y101.071 E.01231
G1 X127.427 Y101.431 E.01191
G1 X127.502 Y101.825 E.01234
G1 X127.498 Y102.212 E.01187
G1 X127.416 Y102.605 E.01234
G1 X127.265 Y102.96 E.01187
G1 X127.039 Y103.292 E.01234
G1 X126.764 Y103.562 E.01186
G1 X126.428 Y103.782 E.01233
G1 X126.055 Y103.931 E.01235
G1 X125.675 Y104.002 E.01188
G1 X125.289 Y103.998 E.01183
G1 X125.239 Y103.988 E.00159
;WIPE_START
G1 X124.911 Y103.921 E-.83646
G1 X124.506 Y103.743 E-1.10517
G1 X124.322 Y103.616 E-.55837
;WIPE_END
G1 Z.6 F9000
G1 X128.335 Y101.622 Z.6
G1 Z.2
G1 E2.5 F1500
;TYPE:Inner wall
;WIDTH:0.618024
G1 F1800
G1 X128.345 Y102.175 E.0259
;WIDTH:0.613698
G1 X128.337 Y102.354 E.00836
;WIPE_START
G1 X128.345 Y102.175 E-.61337
G1 X128.335 Y101.622 E-1.88663
;WIPE_END
G1 Z.6 F9000
G1 X125.131 Y99.167 Z.6
G1 Z.2
G1 E2.5 F1500
;WIDTH:0.608832
G1 F1800
G1 X125.67 Y99.158 E.02487
;WIDTH:0.611446
G1 X125.877 Y99.168 E.00959
;WIPE_START
G1 X125.67 Y99.158 E-.69365
G1 X125.131 Y99.167 E-1.80635
;WIPE_END
G1 Z.6 F9000
G1 X127.991 Y124.162 Z.6
G1 Z.2
G1 E2.5 F1500
;WIDTH:0.419999
G1 F1800
G1 X128.113 Y123.893 E.00907
;WIDTH:0.465798
G1 X128.167 Y123.764 E.00482
;WIDTH:0.511597
G1 X128.22 Y123.635 E.00534
;WIDTH:0.557396
G1 X128.274 Y123.505 E.00586
;WIDTH:0.603195
G1 X128.328 Y123.376 E.00639
G1 X128.354 Y123.468 E.00435
;WIDTH:0.558598
G1 X128.38 Y123.559 E.004
;WIDTH:0.514001
G1 X128.406 Y123.651 E.00366
;WIDTH:0.469404
G1 X128.433 Y123.743 E.00331
;WIDTH:0.424807
G1 X128.435 Y123.957 E.00668
;WIDTH:0.419999
G1 X128.435 Y124.962 E.03087
G1 X128.347 Y125.385 E.01328
G1 X128.152 Y125.659 E.01036
G1 X127.842 Y125.867 E.01149
G1 X127.479 Y125.936 E.01133
G1 X126.807 Y125.936 E.02066
;WIDTH:0.424729
G1 X126.243 Y125.933 E.01754
;WIDTH:0.472349
G1 X126.146 Y125.909 E.0035
;WIDTH:0.519969
G1 X126.049 Y125.886 E.00389
;WIDTH:0.567589
G1 X125.952 Y125.862 E.00427
;WIDTH:0.615208
G1 X125.855 Y125.838 E.00466
G1 X125.945 Y125.796 E.00466
;WIDTH:0.567589
G1 X126.036 Y125.753 E.00427
;WIDTH:0.519969
G1 X126.126 Y125.711 E.00389
;WIDTH:0.472349
G1 X126.217 Y125.669 E.0035
;WIDTH:0.424729
G1 X126.716 Y125.479 E.01661
;WIDTH:0.419999
G1 X127.209 Y125.171 E.01788
G1 X127.605 Y124.791 E.01683
G1 X127.892 Y124.379 E.01544
G1 X127.974 Y124.198 E.00611
G1 X127.654 Y124 F9000
G1 F1800
G1 X127.579 Y124.17 E.0057
G1 X127.162 Y124.703 E.02079
G1 X126.973 Y124.876 E.00788
G1 X126.572 Y125.131 E.0146
G1 X126.143 Y125.297 E.01413
G1 X125.672 Y125.379 E.01468
G1 X125.197 Y125.366 E.01461
G1 X124.751 Y125.265 E.01406
G1 X124.33 Y125.079 E.01413
G1 X123.941 Y124.806 E.0146
G1 X123.624 Y124.473 E.01413
G1 X123.37 Y124.073 E.01457
G1 X123.203 Y123.643 E.01416
G1 X123.121 Y123.174 E.01465
G1 X123.134 Y122.697 E.01465
G1 X123.235 Y122.251 E.01406
G1 X123.421 Y121.83 E.01413
G1 X123.698 Y121.438 E.01474
G1 X124.068 Y121.096 E.0155
G1 X124.412 Y120.877 E.01253
G1 X124.855 Y120.704 E.0146
G1 X125.307 Y120.623 E.01414
G1 X125.785 Y120.632 E.01467
G1 X126.249 Y120.735 E.0146
G1 X126.67 Y120.921 E.01414
G1 X127.059 Y121.194 E.01461
G1 X127.376 Y121.527 E.01412
G1 X127.63 Y121.927 E.01457
G1 X127.797 Y122.357 E.01418
G1 X127.879 Y122.825 E.0146
G1 X127.868 Y123.285 E.01412
G1 X127.765 Y123.749 E.0146
G1 X127.67 Y123.963 E.00721
G1 X127.314 Y123.844 F9000
;TYPE:Outer wall
G1 F1800
G1 X127.265 Y123.96 E.00387
G1 X126.895 Y124.436 E.01852
G1 X126.46 Y124.765 E.01677
G1 X126.069 Y124.927 E.01299
G1 X125.674 Y125.002 E.01236
G1 X125.272 Y124.996 E.01234
G1 X124.895 Y124.916 E.01184
G1 X124.54 Y124.765 E.01186
G1 X124.208 Y124.539 E.01234
G1 X123.938 Y124.264 E.01187
G1 X123.718 Y123.929 E.01231
G1 X123.573 Y123.569 E.0119
G1 X123.498 Y123.175 E.01233
G1 X123.504 Y122.772 E.01238
G1 X123.584 Y122.395 E.01184
G1 X123.735 Y122.04 E.01187
M73 P2 R71
G1 X123.964 Y121.705 E.01247
G1 X124.279 Y121.409 E.01328
G1 X124.558 Y121.225 E.01026
G1 X124.93 Y121.073 E.01233
G1 X125.309 Y121 E.01187
G1 X125.711 Y121.002 E.01236
G1 X126.104 Y121.084 E.01234
G1 X126.46 Y121.235 E.01188
G1 X126.792 Y121.461 E.01234
G1 X127.062 Y121.737 E.01186
G1 X127.282 Y122.071 E.01231
G1 X127.427 Y122.431 E.01191
G1 X127.502 Y122.825 E.01234
G1 X127.498 Y123.211 E.01186
G1 X127.416 Y123.604 E.01234
G1 X127.33 Y123.807 E.00678
;WIPE_START
G1 X127.265 Y123.96 E-.41497
G1 X126.895 Y124.436 E-1.5067
G1 X126.711 Y124.576 E-.57833
;WIPE_END
G1 Z.6 F9000
G1 X125.855 Y125.838 Z.6
G1 Z.2
G1 E2.5 F1500
